project/images/official/editable/534.svg

<?xml version="1.0" encoding="UTF-8" standalone="no"?>
<svg
   width="17.996986pt"
   height="35.993973pt"
   viewBox="0 0 17.996987 35.993973"
   version="1.1"
   id="svg3513"
   xmlns="http://www.w3.org/2000/svg"
   xmlns:svg="http://www.w3.org/2000/svg">
  <defs
     id="defs3517" />
  <g
     id="layer2"
     style="display:inline"
     transform="matrix(0.74036996,0,0,1,-6.9073205,-0.14695233)" />
  <rect
     style="display:inline;fill:#ffffff;stroke:none;stroke-width:0;stroke-linecap:square;stroke-miterlimit:4;stroke-dasharray:none;stroke-opacity:1"
     id="rect3621"
     width="17.996986"
     height="35.993973"
     x="-8.8817842e-16"
     y="0" />
  <rect
     style="display:inline;fill:none;stroke:#000000;stroke-width:0.0897682;stroke-linecap:square;stroke-miterlimit:4;stroke-dasharray:none;stroke-opacity:1"
     id="rect3621-4"
     width="17.187338"
     height="35.184326"
     x="0.40482426"
     y="0.40482372" />
  <g
     id="surface1-5"
     transform="translate(1.3514356,2.8891438)">
    <path
       style="fill:#211e1e;fill-opacity:1;fill-rule:nonzero;stroke:none"
       d="M 1.457031,29.347656 H 1.191406 c -0.316406,0 -0.570312,-0.253906 -0.570312,-0.570312 0,-0.09375 0.023437,-0.179688 0.066406,-0.257813 L 5.773438,18.539062 V 17.78125 h 4.542968 l -0.0078,0.757812 4.625,9.082032 v 0.960937 c 0,0.417969 -0.335938,0.757813 -0.753906,0.757813 l -0.136719,0.0078 c -0.214844,0 -0.410157,-0.128906 -0.503907,-0.316406 L 8.71875,19.566406 C 8.59375,19.324219 8.328125,19.15625 8.042969,19.15625 c -0.296875,0 -0.554688,0.171875 -0.679688,0.417969 l -4.554687,8.945312 c -0.25,0.488281 -0.761719,0.828125 -1.351563,0.828125"
       id="path4545" />
    <path
       style="fill:#211e1e;fill-opacity:1;fill-rule:nonzero;stroke:none"
       d="m 0.210938,15.992188 c -0.066407,0.09375 -0.109376,0.207031 -0.109376,0.332031 0,0.1875 0.09375,0.359375 0.246094,0.457031 0.214844,0.152344 0.476563,0.238281 0.757813,0.238281 0.449219,0 0.847656,-0.222656 1.085937,-0.558593 l 3.574219,-5.113282 0.00781,5.671875 h 4.542968 l -0.0078,-7.1875 2.675781,2.675781 v 3.777344 c 0,0.210938 0.171875,0.382813 0.382813,0.382813 h -0.0078 c 0.835937,0 1.511719,-0.675781 1.511719,-1.511719 v -2.648438 c 0,-0.519531 -0.210938,-0.992187 -0.546875,-1.332031 L 10.234375,7.089844 C 9.753906,6.605469 9.097656,6.3125 8.363281,6.3125 c -0.890625,0 -1.683593,0.445312 -2.164062,1.128906 l -5.988281,8.550782"
       id="path4547" />
    <path
       style="fill:#211e1e;fill-opacity:1;fill-rule:nonzero;stroke:none"
       d="M 9.074219,3.269531 C 9.074219,2.015625 8.050781,1 6.796875,1 5.546875,1 4.53125,2.015625 4.53125,3.269531 c 0,1.25 1.015625,2.265625 2.265625,2.265625 1.253906,0 2.277344,-1.015625 2.277344,-2.265625"
       id="path4549" />
  </g>
</svg>

<?xml version="1.0" encoding="UTF-8"?>
<svg xmlns="http://www.w3.org/2000/svg" xmlns:xlink="http://www.w3.org/1999/xlink" width="15pt" height="30pt" viewBox="0 0 15 30" version="1.1">
<g id="surface1">
<path style=" stroke:none;fill-rule:nonzero;fill:rgb(13.729858%,12.159729%,12.548828%);fill-opacity:1;" d="M 1.457031 29.347656 L 1.191406 29.347656 C 0.875 29.347656 0.621094 29.09375 0.621094 28.777344 C 0.621094 28.683594 0.644531 28.597656 0.6875 28.519531 L 5.773438 18.539062 L 5.773438 17.78125 L 10.316406 17.78125 L 10.308594 18.539062 L 14.933594 27.621094 L 14.933594 28.582031 C 14.933594 29 14.597656 29.339844 14.179688 29.339844 L 14.042969 29.347656 C 13.828125 29.347656 13.632812 29.21875 13.539062 29.03125 L 8.71875 19.566406 C 8.59375 19.324219 8.328125 19.15625 8.042969 19.15625 C 7.746094 19.15625 7.488281 19.328125 7.363281 19.574219 L 2.808594 28.519531 C 2.558594 29.007812 2.046875 29.347656 1.457031 29.347656 "/>
<path style=" stroke:none;fill-rule:nonzero;fill:rgb(13.729858%,12.159729%,12.548828%);fill-opacity:1;" d="M 0.210938 15.992188 C 0.144531 16.085938 0.101562 16.199219 0.101562 16.324219 C 0.101562 16.511719 0.195312 16.683594 0.347656 16.78125 C 0.5625 16.933594 0.824219 17.019531 1.105469 17.019531 C 1.554688 17.019531 1.953125 16.796875 2.191406 16.460938 L 5.765625 11.347656 L 5.773438 17.019531 L 10.316406 17.019531 L 10.308594 9.832031 L 12.984375 12.507812 L 12.984375 16.285156 C 12.984375 16.496094 13.15625 16.667969 13.367188 16.667969 L 13.359375 16.667969 C 14.195312 16.667969 14.871094 15.992188 14.871094 15.15625 L 14.871094 12.507812 C 14.871094 11.988281 14.660156 11.515625 14.324219 11.175781 L 10.234375 7.089844 C 9.753906 6.605469 9.097656 6.3125 8.363281 6.3125 C 7.472656 6.3125 6.679688 6.757812 6.199219 7.441406 L 0.210938 15.992188 "/>
<path style=" stroke:none;fill-rule:nonzero;fill:rgb(13.729858%,12.159729%,12.548828%);fill-opacity:1;" d="M 9.074219 3.269531 C 9.074219 2.015625 8.050781 1 6.796875 1 C 5.546875 1 4.53125 2.015625 4.53125 3.269531 C 4.53125 4.519531 5.546875 5.535156 6.796875 5.535156 C 8.050781 5.535156 9.074219 4.519531 9.074219 3.269531 "/>
</g>
</svg>
